X: 4
T: Moving In Old Decency
Z: Phantom Button
S: https://thesession.org/tunes/2033#setting16326
R: reel
M: 4/4
L: 1/8
K: Edor
Beed B2ed|Beed B2 AG|FAdA FAdB|AFdB A2FA|!Be~e2 geed|Beed BAGF|~G3F GBdB|AGFG E4:||!~e3f edBA|B/c/d ef g2fe|dcde dA~A2|dAde fAdf|!~e3f edBA|B/c/d ef g2BA|~G3F GBdB|AGFG E4:||!
